X: 16307
T: Grötvalsen
R: waltz
M: 3/4
K: Gmajor
DF>G|:A4 A>B|A4 F>G|A3 G F2|D3 D G>A|B4-Bc/d/|c4 B2|A4-A>B|A3 D G>A|
B4-Bc/d/|c4 B|A3 G F2|D4 A>B|1 A4 A>B|AG3 F2|D6-|D3D F>G:|2 c4 c>B|c3 B c2|d6|F2 G2 A2||
|:B4-B>d|B3 A G2|c4 B|A3 D G>A|B4 d2|e4 d2|A6-|A3 D G>A|
B4 d2|c4 B2|A3 G F2|D4 A>B|1 A4 A>B|A/G-G2 F2|D6|F2 G2 A2:|2 c4 c>B|c2 B2 c2|d6-|d3 D G>A||
A4-A>B|A4 F>G|A3 G F2|D3 D G>A|B4-Bc/d/|c4 B2|A4-A>B|A3 D G>A|
B4-Bc/d/|c4 B|A3 G F2|D4 A>B|A4 A>B|AG3 F2|D6-|D||

